website/assets/images/icon-flag.svg

<?xml version="1.0" encoding="UTF-8"?>
<svg width="31px" height="32px" viewBox="0 0 31 32" version="1.1" xmlns="http://www.w3.org/2000/svg" xmlns:xlink="http://www.w3.org/1999/xlink">
    <!-- Generator: Sketch 51.2 (57519) - http://www.bohemiancoding.com/sketch -->
    <title>flag-diagonal-33</title>
    <desc>Created with Sketch.</desc>
    <defs></defs>
    <g id="Home" stroke="none" stroke-width="1" fill="none" fill-rule="evenodd">
        <g id="Play@2x" transform="translate(-705.000000, -374.000000)" fill-rule="nonzero">
            <g id="Group-2" transform="translate(247.000000, 311.000000)">
                <g id="flag-diagonal-33" transform="translate(458.000000, 63.000000)">
                    <path d="M2.95909091,6.50833333 C2.53636364,5.8 1.69090909,5.51666667 1.12727273,5.94166667 C0.422727273,6.36666667 0.140909091,7.21666667 0.563636364,7.925 L13.95,31.3 C14.2318182,31.725 14.6545455,32.0083333 15.2181818,32.0083333 C15.5,32.0083333 15.6409091,32.0083333 15.9227273,31.8666667 C16.6272727,31.4416667 16.7681818,30.5916667 16.4863636,29.8833333 L2.95909091,6.50833333 Z" id="Shape" fill="#033C89"></path>
                    <path d="M30.4363636,11.75 L24.0954545,0.7 C23.9545455,0.416666667 23.5318182,0.133333333 23.1090909,0.133333333 C22.6863636,0.133333333 22.2636364,0.133333333 21.9818182,0.558333333 C20.15,2.25833333 18.0363636,2.4 15.9227273,2.4 L14.3727273,2.4 C11.5545455,2.4 8.45454545,2.68333333 6.05909091,6.225 L13.95,19.825 C14.2318182,19.6833333 14.3727273,19.5416667 14.5136364,19.2583333 C16.2045455,16.2833333 18.1772727,16.1416667 20.8545455,16.1416667 L22.2636364,16.1416667 C24.8,16.1416667 27.6181818,16 30.2954545,13.5916667 C30.7181818,13.1666667 30.7181818,12.4583333 30.4363636,11.75 Z" id="Shape" fill="#F9B148"></path>
                </g>
            </g>
        </g>
    </g>
</svg>

<svg width="31" height="32" viewBox="0 0 31 32" xmlns="http://www.w3.org/2000/svg"><title>flag-diagonal-33</title><g fill-rule="nonzero" fill="none"><path d="M2.96 6.508c-.424-.708-1.27-.991-1.833-.566-.704.425-.986 1.275-.563 1.983L13.95 31.3c.282.425.705.708 1.268.708.282 0 .423 0 .705-.141.704-.425.845-1.275.563-1.984L2.96 6.508z" fill="#033C89"/><path d="M30.436 11.75L24.096.7c-.141-.283-.564-.567-.987-.567-.423 0-.845 0-1.127.425-1.832 1.7-3.946 1.842-6.06 1.842h-1.55c-2.817 0-5.917.283-8.313 3.825l7.891 13.6c.282-.142.423-.283.564-.567 1.69-2.975 3.663-3.116 6.34-3.116h1.41c2.536 0 5.354-.142 8.031-2.55.423-.425.423-1.134.141-1.842z" fill="#F9B148"/></g></svg>
